app/dist/common/images/sitio-royalties.svg

<svg height="18" viewBox="0 0 18 18" width="18" xmlns="http://www.w3.org/2000/svg"><path d="m0 0h18v18h-18z" fill="#f0f3fa"/><path d="m13 7v-1.6c0-.77-.61-1.4-1.36-1.4h-5.28c-.75 0-1.36.63-1.36 1.4v2.2c0 .56.35 1.06.87 1.24l.45.16 4.04-.63-3.36-1.04v-1.33h4v1z" fill="#2670ca"/><path d="m5 11v1.6c0 .77.61 1.4 1.36 1.4h5.28c.75 0 1.36-.63 1.36-1.4v-2.3c0-.56-.35-.9-.87-1.08l-.62-.22-4.34.5 3.83 1.07v1.43h-4v-1z" fill="#152342"/></svg>

<!-- by TradingView --><svg width="18" height="18" viewBox="0 0 18 18" xmlns="http://www.w3.org/2000/svg"><path fill="#F0F3FA" d="M0 0h18v18H0z"/><path d="M13 7V5.4c0-.77-.61-1.4-1.36-1.4H6.36C5.61 4 5 4.63 5 5.4v2.2c0 .56.35 1.06.87 1.24l.45.16 4.04-.63L7 7.33V6h4v1h2Z" fill="#2670CA"/><path d="M5 11v1.6c0 .77.61 1.4 1.36 1.4h5.28c.75 0 1.36-.63 1.36-1.4v-2.3c0-.56-.35-.9-.87-1.08L11.51 9l-4.34.5L11 10.57V12H7v-1H5Z" fill="#152342"/></svg>
